X:1
T:Fair Daffodils, H.51
T:Frank Bridge
T:Fair Daffodils
T:Robert Herrick
T:H.51
T:Creative Commons copyright waiver (CC0 1.0 Universal)
T:Creative Commons copyright waiver (CC0 1.0 Universal)
T:Creative Commons copyright waiver (CC0 1.0 Universal)
T:Creative Commons copyright waiver (CC0 1.0 Universal)
T:Creative Commons copyright waiver (CC0 1.0 Universal)
C:Frank Bridge
Z:Robert Herrick
Z:Creative Commons copyright waiver (CC0 1.0 Universal)
%%score ( 1 2 3 ) { ( 4 5 ) | ( 6 7 ) }
L:1/8
Q:1/4=80
M:4/4
K:A
V:1 treble nm="Voice"
V:2 treble 
V:3 treble 
V:4 treble nm="Piano"
V:5 treble 
V:6 bass 
V:7 bass 
V:1
"^Allegretto con moto." z8 | z8 |[Q:1/4=72] z4 z2 !fermata!z2 |!mf![Q:1/4=80] e4 F3/2 F/ B2- | %4
w: |||Fair daff- o- dils,|
 B d c2- c B A G | (A2 e) ^d c2 B2 ||[M:2/4]!>(! (B2!>)! E2) ||[M:4/4] z2!mp! E2 F3 F | %8
w: _ we weep _ to see You|haste _ a- way so|soon; _|As yet the|
!<(! B B c d!<)![Q:1/4=76] c3[Q:1/4=66] F[Q:1/4=72] |"^a tempo"[Q:1/4=80] (d2 f) e d2 E2 || %10
w: ear- ly- ri- sing sun Has|not _ at- tained his|
[M:2/4]!>(! (c2!>)! A2) ||[M:4/4] z2!mf! !tenuto!e2 ^d4- | d c B ^A B A G B | ^A4- A G A B | %14
w: noon. _|Stay, stay,|_ Un- til the hast- ing day Has|run _ But to the|
 B3!<(! c (d2!<)! ^d2) |!mf! e4 F3 F |[Q:1/4=76]!>(! B3 B"^rit."[Q:1/4=72] (d2!>)! !breath!c2) | %17
w: e- ven- song; _|And, hav- ing|pray’d to- ge- ther,|
"^a tempo"[Q:1/4=80] !breath!z8 |!mp! c2 d e c2 !fermata!E3/2 E/ | (c4 e4-) | e4 z4 | %21
w: |we Will go with you a-|long. _|_|
[Q:1/4=72] z4 z2 !fermata!z2 |!mf![Q:1/4=80] e2 d =c d3/2 d/ B2- | B A d2- d =c B A | %24
w: |We have short time to stay,|_ as you, _ We have as|
 G3 F!>(! (B2 E2)!>)! | z!mf! e d =c!<(! B3!<)! B |!>(! d3/2 d/!>)! ^c4"^dim." B2 || %27
w: short a spring; _|As quick a growth to|meet de- cay, As|
[M:3/4]!p! (ed- d2)!<(! E2!<)! ||[M:2/4][Q:1/4=76]!>(! c3/2!>)! c/ !breath!!fermata!A2 || %29
w: you, _ _ or|an- y- thing.|
[M:4/4][Q:1/4=80] z2!f! e2 ^d3"^dim." c |!>(! B2 ^A2 G3!>)!!p! A |"^tranquillo" B c ^A2- A G A B | %32
w: We die, as|your hours do, and|dry A- way, _ Like to the|
 B3 c (d2 ^d2) |!mf! e4 F3 F | B3 B"^rall."[Q:1/4=76] d2 c2 |!pp![Q:1/4=72] (e4 ^d2) !fermata!z2 | %36
w: sum- mer’s rain; _|Or, as the|pearls of morn- ing’s|dew, _|
"^a tempo"[Q:1/4=80] z8 |!p! c2 =d e[Q:1/4=72] (c2 !fermata!E3/2) !fermata!E/ | %38
w: |Ne’er to be found * a-|
[Q:1/4=80]!<(! (c4 e4-)!<)! | e8- |"^ad lib" e6- e2- |[Q:1/4=76] e4- e3[Q:1/4=72] z | %42
w: gain. _|_|||
[Q:1/4=60] !fermata!z8 |] %43
w: |
V:2
 x8 | x8 | x8 | x8 | x8 | x8 ||[M:2/4] x4 ||[M:4/4] x8 | x6"^rit." z2 | x8 ||[M:2/4] x4 || %11
[M:4/4] x8 | x8 | x8 | x8 | x8 | x8 | x8 | x8 | x8 | x8 | x8 | x8 | x8 | x8 | x8 | x8 || %27
[M:3/4] x6 ||[M:2/4] x4 ||[M:4/4] x8 | x8 | x8 | x8 | x8 | x8 | x8 | x8 | x8 | x8 | x6"^dim." x2 | %40
 x3!>(! x x2 z2 | z8 | x8 |] %43
V:3
 x8 | x8 | x8 | x8 | x8 | x8 ||[M:2/4] x4 ||[M:4/4] x8 | x8 | x8 ||[M:2/4] x4 ||[M:4/4] x8 | x8 | %13
 x8 | x8 | x8 | x8 | x8 | x8 | x8 | x8 | x8 | x8 | x8 | x8 | x8 | x8 ||[M:3/4] x6 ||[M:2/4] x4 || %29
[M:4/4] x8 | x8 | x8 | x8 | x8 | x8 | x8 | x8 | x8 | x8 | x8 | x8 | x2!pp! x2 x4 | x8 |] %43
V:4
!mf!{/E} [ce]4 x4 |!mp!{/E} [ce]4 x4 | %2
 z !arpeggio![ad'a']2 [fad'f'] z2 !arpeggio!!breath!!fermata![FABe]2 |!mf!{/E} [ce]4 x4 | %4
!p! z/ (D/F/B/) z/!<(! (D/G/c/!<)! d/!>(!g/c'/g/ d/!>)!c/G/D/) | %5
 z/ (A,/C/E/ F/E/A/E/ e/c/A/E/) B2 ||[M:2/4]!>(! [=DB]4!>)! ||[M:4/4]!p!{/E} [ce]4 [DF]4 | %8
 z/ (D/F/A/) z/ (C/G/c/) z/!<(! (B/e/b/!<)!!>(!"_rit." =a/=g/f/F/)!>)! | %9
!p! z/ (D/F/A/ B/A/d/A/ a/f/d/A/) e2 ||[M:2/4]!>(! (((([C^DFc]2!>)! [CEA]2)))) || %11
[M:4/4]!mf! (G,/E/G/E/ ^A,/E/G/E/) (B,/^E/G/E/ B/G/E/G/) | %12
 (G,/=E/G/E/ ^A,/E/G/E/) (B,/^E/G/E/ B/G/E/G/) | !arpeggio![G,^^C^A]2 x2 x4 | %14
 !arpeggio![G,DFB]2 x2 ([Ba]2 [A=g]2) |!mf!{/=E} [^c=e]4!>(! [DF]4!>)! | %16
 z2!p!!>(! [FG]2!>)!"_rit." (d2 c2) |!mf!{/F} [^df]4 !breath!x4 | %18
 z2!p! [=D=A=d]2 [Gcg]2 !fermata![B^fb]2 |!mf!{/E} [ce]4 x4 |!mp!{/E} [ce]4 x4 | %21
 z!p! !arpeggio![ad'a']2 [=fad'=f'] z2 !arpeggio!!breath!!fermata![=FABe]2 | %22
!mf![I:staff +1] (E,,/=C,/A,/[I:staff -1]E/ A/=c/e/E/)[I:staff +1] (=G,,/C,/B,/[I:staff -1]D/ E/B/d/D/) | %23
[I:staff +1] (A,,/E,/=F,/[I:staff -1]=C/ E/A/=c/C/) z/ (E/A/c/ e/c/A/E/) | %24
 z/!>(! (^c/E/G/) z/ (B/!>)!^D/F/)!p![I:staff +1] (E,,/B,,/G,/[I:staff -1]B,/!>(! E/G/B/E/)!>)! | %25
!mf![I:staff +1] (=C,/=G,/B,/[I:staff -1]E/ =G/B/e/E/)[I:staff +1] (D,/G,/B,/[I:staff -1]D/ F/G/d/D/) | %26
 z/ (D/=G/B/)!<(! z/ (C/^G/c/)!<)! z/ (c/!>(!=a/=g/ f/d/B/F/)!>)! || %27
[M:3/4] (=F/A/B/A/ =f/d/A/F/) e2 ||[M:2/4]!>(! (((([C^DFc]2!>)! [CEA]2)))) || %29
[M:4/4]!mf! (G,/E/G/E/ ^A,/E/G/E/) (B,/!>(!^E/G/E/ B/G/E/!>)!B,/) | %30
 (G,/=E/G/E/"_dim." ^A,/E/G/E/) (B,/^E/G/E/ B) z | %31
!p!"^colla parte" (F2"_leggiero" ^E/)(E/^A/^^c/ ^e) z z2 | %32
!mp! !arpeggio![G,DFB]2!<(! x2!<)! ([Ba]2 [A=g]2) |!mf!{/=E} [^c=e]4!>(! [DF]4!>)! | %34
 z2!p! [FG]2"_rall."!>(! (d2 c2)!>)! |!pp! ([F-=A-^B-e]4 [FAB^d]3) z |!pp!{/F} [^df]4 !breath!x4 | %37
 z2!p! [=D=A=d]2 [Gcg]2"^L.H." !arpeggio!!fermata![be']2 |!p!{/E} [ce]4 x4 |!mp!!>(!{/E} [ce]4 x4 | %40
{/E} [ce]4{/E} [ce]4 |{/E} [ce]4[I:staff +1] (3.C.A,.E, (3.C,.A,,.E,,!>)! | %42
!pp![I:staff -1] z2 !fermata![Aea]6 |] %43
V:5
 z z/ (E/ F/c/A/E/) [DF]>([DF]- [DFGB]2) | z z/ (E/ F/c/A/E/) [DF]>([DF]- [DFGB]2) | x8 | %3
 z z/ (E/ F/c/A/E/) [DF]>([DF]- [DFGB]2) | x8 | x6 (3^DFD ||[M:2/4] (([FA]2 [EG]2)) || %7
[M:4/4] z z/ (E/ F/c/A/E/) x4 | x8 | x6 (3GBG ||[M:2/4] x4 ||[M:4/4] (G,2 ^A,2) B,4 | %12
 (G,2 ^A,2) B,4 | x8 | x8 | z z/ (E/ ^F/c/A/E/) x4 | x4 [E=G^A]4 | %17
 z z/ (F/ G/^d/B/F/) [EG]>([EG]- [EG^Ac]2) | x8 | z z/ (E/ F/c/A/E/) [DF]>([DF]- [DFGB]2) | %20
 z z/ (E/ F/c/A/E/) [DF]>([DF]- [DFGB]2) | x8 | x8 | x8 | x8 | x8 | x8 ||[M:3/4] x4 (3^GBG || %28
[M:2/4] x4 ||[M:4/4] (G,2 ^A,2) B,4 | (G,2 ^A,2) B,2- B, x | x8 | x8 | z z/ (E/ F/c/A/E/) x4 | %34
 x4 [E=G^A]4 | x8 | z z/ (F/ G/^d/B/F/) [EG]>([EG]- [EG^Ac]2) | x6 [D^FBe]2 | %38
 z z/ (E/ F/c/A/E/) [DF]>([DF]- [DFGB]2) | z z/ (E/ F/c/A/E/) [DF]>([DF]-"_dim." [DFGB]2) | %40
 z z/ (E/ F/c/!fermata!A/!fermata!E/) z z/ (E/ F/c/!fermata!A/!fermata!E/) | %41
 z z/ (E/ F/c/A/E/) x4 | x8 |] %43
V:6
!ped! z/ (A,,/E,/C/) z2!ped-up! z/!>(! (C/B,/A,/ G,/F,/E,)!>)! | %1
!ped! z/ (A,,/E,/C/) z2!ped-up! z/ (C/B,/A,/ G,/F,/E,) | %2
 z[I:staff -1] [cdf]2 [Bdf][I:staff +1] z2 !fermata![E,A,B,D]2 | %3
!ped! z/ (A,,/E,/C/) z2!ped-up! z/!>(! (C/B,/A,/ G,/F,/E,/)(A,,/-!>)! | (E,2) ^E,4 B,2) | %5
 (C,2 A,4) [B,,A,]2 ||[M:2/4] (3z .E,,.B,, .E,.B, || %7
[M:4/4]!ped! z/ (A,,/E,/C/) z2!ped-up! z/ (C/B,/A,/ G,/F,/E,/)(A,,/- | %8
 (E,2) ^E,2) !arpeggio![=G,,=E,B,]2 F,,/-E,/-[E,^A,] | (=A,2 D4) [E,D]2 || %10
[M:2/4] (3z .A,,.F, .A,.A,, ||[M:4/4] !arpeggio![C,,G,,E,]4 [G,,^D,]4 | %12
 !arpeggio![C,,G,,E,]4 [G,,^D,]4 | %13
!ped! (^E,,/^A,,/^E,/^A,/ ^^C/[I:staff -1]^E/^A/^^c/ ^e)[I:staff +1] z z2!ped-up! | %14
 (=E,,/B,,/G,/[I:staff -1]D/ F/B/!<(!d/B/-)[I:staff +1] ((=FD)!<)! _E2) | %15
!ped! z/ (A,,/=E,/^C/) z2!ped-up! z/ (C/B,/A,/ G,/F,/E,) | z2 [B,D]2 (D2 C2) | %17
 z/!ped! (B,,/F,/^D/) z2!ped-up! z/!>(! (^D/C/B,/ ^A,/G,/F,)!>)! | %18
 z2 [=F,=A,]2 [E,C]2 !arpeggio!!fermata![E,D^F]2 | %19
!ped! z/ (A,,/E,/C/) z2!ped-up! z/!>(! (C/B,/A,/ G,/F,/E,)!>)! | %20
!ped! z/ (A,,/E,/C/) z2!ped-up! z/ (C/B,/A,/ G,/F,/E,) | %21
 z[I:staff -1] [=cd=f]2 [Bdf][I:staff +1] z2 !fermata![E,A,B,D]2 | x8 | %23
 x (=F,2 ^F,) (!arpeggio!A,3 =C) | (B,^A, =A,2) E,,2 z2 | =C,2 z2 D,2 z2 | (B,4 ^A,2 ^G,2) || %27
[M:3/4] (!arpeggio!A,2 D2) [E,D]2 ||[M:2/4] (3z .A,,.F, .A,.A,, || %29
[M:4/4] !arpeggio![C,,G,,E,]4 [G,,^D,]4 | !arpeggio![C,,G,,E,]4 [G,,^D,]2- [G,,D,] z | %31
 (^D2!ped! [G,^^C]2-) [G,C]!ped-up! z z2 | %32
 (=E,,/B,,/G,/[I:staff -1]D/ F/B/d/B/-)[I:staff +1] (=F2 _E2) | %33
!ped! z/ (A,,/=E,/^C/) z2!ped-up! z/ (C/B,/A,/ G,/F,/E,) | z2 [B,D]2 (D2 C2) | (E4 ^D3) z | %36
 z/!ped! (B,,/F,/^D/) z2!ped-up! z/ (^D/C/B,/ ^A,/G,/F,) | z2 [=F,=A,]2 [E,C]2 [E,,B,,G,]2 | %38
!ped! z/ (A,,/E,/C/) z2!ped-up! z/!>(! (C/B,/A,/ G,/F,/E,)!>)! | %39
!ped! z/ (A,,/E,/C/) z2!ped-up! z/ (C/B,/A,/ G,/F,/E,) |!ped! z/ (A,,/E,/C/) z2 z/ (A,,/E,/C/) z2 | %41
 z/ (A,,/E,/C/) z2 z4!ped-up! | z2 !fermata![E,C]6 |] %43
V:7
 x8 | x8 | x8 | x8 | A,,8 | A,,6 x2 ||[M:2/4] x4 ||[M:4/4] x8 | (A,,2 G,,2) x2 F,,F,, | B,,6 x2 || %10
[M:2/4] x4 ||[M:4/4] x8 | x8 | x8 | x6 (=C=F,) | x8 | x4 F,4 | x8 | x8 | x8 | x8 | x8 | x8 | %23
 A,,4 F,,4 | B,,4 x4 | x8 |{/F,-} (F,2 ^E,2 =E,2 =D,2) ||[M:3/4] B,,4 x2 ||[M:2/4] x4 || %29
[M:4/4] x8 | x8 | x8 | x4 (=FD) (=C=F,) | x8 | x4 F,4 | G,4- G,3 x | x8 | x8 | x8 | x8 | x8 | x8 | %42
 !fermata!A,,,8 |] %43

